X: 346
U:~=!turn!
M:C
L:1/8
K:D
g | (f/e/d) (a>d) f>da>d | (c/B/A) (e>A) c>de>g | (f/e/d) (a>d) f>da>d | g<ba>g fddg |
(f/e/d) (a>d) f>da>d | (e/B/A) (eA) c>de<A | B<dc<e d<fe<g| f<ba>g fdd |]


